X:133
T:score216
L:1/8
Q:1/4=96
M:3/4
I:linebreak $
K:Bmin
!p! (dg fc dB | ^A4) (!>!f2- | fg fc ed |"_cresc." B4) (!>!f2 |$ f'c' d'^a bf) | %5
 (=a"^poco rit    -   -   -   -   -    -   -    -  "g Bc eg) | (gf"_dim." Bd cF | B3) z z2 |] %8
